X: 5
T: Anne Lacey's
R: reel
M: 4/4
L: 1/8
K: Gdor
|:G2GF GBDG|BGFD CB,DF|G2GF GBdc|BGFD CB,DB,|
C2CB, CDFG|BGFD GDFD|GG, G,/G,/G, B,CDG|BGFD FGG2:|
|:g3f dcBc|dcBc dggf|ecfc gcfg|bgfd cBdf|
g3f dcBc|dcBG FDGD|C2CB, CDFG|1BGFD GDFG:|2BGFD GDF2||

composer: Liz Carroll
